X:9
T:Partageons le pain du Seigneur
T:Processional de la Croix
M:6/8
K:F
zDC|F2F FGA|F3- FGF|B2B AGF|G3 c2c|F3 G2A|A3 AGF|D3CDF|F6||
M:2/4
L:1/8
zA AG|A3 A|cc AG|FF GF|D4|C2 zC|FF GG|A2 F2|BA GF|G4|G2||
